static/img/text-glow.svg

<svg width="238" height="118" fill="none" viewBox="0 0 238 118" xmlns="http://www.w3.org/2000/svg">
 <g opacity=".8">
  <path d="m208.4 90.33c-5.609 2.03-8.731 7.967-6.968 13.25 1.763 5.283 7.749 7.924 13.36 5.894 5.61-2.03 8.732-7.967 6.968-13.25-1.763-5.283-7.749-7.924-13.36-5.894zm-183.1-53.68c1.464 1e-4 2.197 0.7322 2.197 2.197v68.83c0 1.464-0.7322 2.196-2.197 2.196h-14.5c-1.464 0-2.197-0.732-2.197-2.196v-68.83c0-1.464 0.7323-2.197 2.197-2.197h14.5zm59.6-0.5857c15.96 0 21.53 10.84 21.53 25.77v45.84c0 1.464-0.733 2.196-2.197 2.196h-14.5c-1.464 0-2.197-0.732-2.197-2.196v-48.03c0-4.979-3.661-6.736-7.908-6.736h-1.757c-6.297 0-10.84 2.636-12.45 5.272v49.5c0 1.464-0.7322 2.196-2.197 2.196h-14.5c-1.464 0-2.197-0.732-2.197-2.196v-68.83c0-1.464 0.7322-2.197 2.197-2.197h14.5c1.464 1e-4 2.197 0.7322 2.197 2.197v6.443c2.197-3.661 7.761-9.226 18.6-9.226h0.8787zm55.79-28.7c1.465 0 2.197 0.7323 2.197 2.197v50.82l20.79-21.97c0.879-1.025 2.197-1.757 3.369-1.757h15.08c1.904 1e-4 3.661 2.197 1.025 4.979l-21.82 23.43 25.48 40.86c0.879 1.611 0.732 3.954-1.757 3.954h-13.77c-1.903 0-3.661-0.585-4.832-2.636l-17.87-29.58-5.711 5.711v24.31c0 1.464-0.732 2.196-2.197 2.196h-14.5c-1.464 0-2.196-0.732-2.196-2.196v-98.12c0-1.464 0.732-2.197 2.196-2.197h14.5zm-125.5 3.479c-5.497 1.662-8.805 7.209-7.383 12.38 1.423 5.17 7.041 8.018 12.54 6.356 5.497-1.662 8.805-7.209 7.383-12.38-1.423-5.17-7.041-8.018-12.54-6.356z" clip-rule="evenodd" fill="#000" fill-rule="evenodd"/>
  <path d="m25.33 36.15h-14.5c-0.8093 0-1.508 0.2027-2.001 0.6956-0.493 0.493-0.6956 1.192-0.6956 2.001v68.83c0 0.809 0.2027 1.508 0.6956 2.001s1.192 0.695 2.001 0.695h14.5c0.8093 0 1.508-0.202 2.001-0.695s0.6956-1.192 0.6956-2.001v-68.83c0-0.8093-0.2027-1.508-0.6956-2.001-0.4929-0.4929-1.192-0.6956-2.001-0.6956zm162 69.53-7e-3 -0.013-7e-3 -0.012-25.28-40.53 21.56-23.15c1e-3 -5e-4 1e-3 -1e-3 2e-3 -0.0015 1.395-1.474 1.733-2.916 1.291-4.056-0.431-1.114-1.55-1.765-2.681-1.765h-15.08c-1.353 1e-4 -2.795 0.8251-3.74 1.922l-19.92 21.05v-49.56c0-0.8092-0.203-1.508-0.696-2.001-0.493-0.493-1.192-0.6956-2.001-0.6956h-14.5c-0.809 0-1.508 0.2027-2.001 0.6956-0.493 0.4929-0.695 1.192-0.695 2.001v98.12c0 0.809 0.202 1.508 0.695 2.001s1.192 0.695 2.001 0.695h14.5c0.809 0 1.508-0.202 2.001-0.695s0.696-1.192 0.696-2.001v-24.1l5.113-5.113 17.53 29.02 3e-3 6e-3c0.631 1.103 1.435 1.833 2.353 2.282 0.913 0.447 1.91 0.6 2.91 0.6h13.77c0.701 0 1.283-0.165 1.735-0.481 0.454-0.318 0.738-0.761 0.885-1.247 0.288-0.951 0.059-2.079-0.424-2.965zm-172.2-95.32 0.1447 0.4786-0.1447-0.4786c-5.727 1.731-9.223 7.529-7.72 12.99v1e-4c1.506 5.472 7.431 8.435 13.16 6.701 5.727-1.732 9.223-7.529 7.72-12.99-1.506-5.473-7.431-8.435-13.16-6.702zm193.1 79.5c-5.835 2.112-9.131 8.31-7.272 13.88 1.863 5.581 8.161 8.32 14 6.206 5.834-2.112 9.131-8.31 7.272-13.88-1.863-5.581-8.162-8.32-14-6.206zm-101.3-28.02c0-7.516-1.398-14.09-4.876-18.79-3.499-4.728-9.045-7.488-17.15-7.488h-0.8787c-9.762 0-15.36 4.443-18.1 8.091v-4.809c0-0.8093-0.2027-1.508-0.6956-2.001-0.4929-0.4929-1.192-0.6956-2.001-0.6956h-14.5c-0.8093 0-1.508 0.2027-2.001 0.6956-0.493 0.493-0.6956 1.192-0.6956 2.001v68.83c0 0.809 0.2026 1.508 0.6956 2.001 0.4929 0.493 1.192 0.695 2.001 0.695h14.5c0.8093 0 1.508-0.202 2.001-0.695s0.6956-1.192 0.6956-2.001v-49.35c1.557-2.407 5.862-4.916 11.95-4.916h1.757c2.066 0 3.923 0.4294 5.251 1.404 1.302 0.9561 2.157 2.482 2.157 4.832v48.03c0 0.809 0.2026 1.508 0.6955 2.001 0.493 0.493 1.192 0.695 2.001 0.695h14.5c0.809 0 1.508-0.202 2.001-0.695s0.696-1.192 0.696-2.001v-45.84z" stroke="#fff" stroke-opacity=".8"/>
  <path d="m206.6 73.28-3.191-0.0236c-1.464 0-2.196-0.7323-2.196-2.197v-61.51c0-1.464 0.732-2.197 2.196-2.197h14.94c1.465 0 2.197 0.7323 2.197 2.197l-9e-3 2.076c-5.681 1.384-10.1 7.172-10.46 14.39-0.284 5.797 2.129 11.05 5.943 14.02-2.841 1.933-4.93 5.198-5.453 9.109-0.57 4.258 0.847 8.291 3.477 10.96-2.654 1.165-5.071 3.546-6.447 6.685-0.972 2.219-1.276 4.48-0.996 6.488z" clip-rule="evenodd" fill="#000" fill-rule="evenodd"/>
  <path d="m206.6 73.78 0.578 0.0043-0.079-0.5733c-0.267-1.91 0.02-4.078 0.958-6.219 1.328-3.032 3.658-5.317 6.19-6.428l0.665-0.2918-0.51-0.5171c-2.517-2.553-3.888-6.431-3.338-10.54l-0.495-0.0664 0.495 0.0664c0.505-3.774 2.519-6.911 5.24-8.762l0.567-0.386-0.541-0.4218c-3.674-2.862-6.029-7.951-5.751-13.6 0.345-7.044 4.654-12.61 10.08-13.93l0.38-0.0926 2e-3 -0.3911 9e-3 -2.075v-0.00216c0-0.8092-0.203-1.508-0.696-2.001-0.493-0.4929-1.191-0.6956-2.001-0.6956h-14.94c-0.809 0-1.508 0.2027-2.001 0.6956-0.493 0.493-0.695 1.192-0.695 2.001v61.51c0 0.8093 0.202 1.508 0.695 2.001 0.493 0.4927 1.191 0.6954 2 0.6957h1e-3l3.188 0.0236z" stroke="#fff" stroke-opacity=".8"/>
  <path d="m211.2 68.31c-1.089 2.485-0.256 5.11 1.859 5.857 2.114 0.747 4.715-0.6643 5.804-3.15s0.256-5.11-1.859-5.857c-2.114-0.7472-4.715 0.6643-5.804 3.15zm3.944-18.2c-0.727 3.848 1.302 7.46 4.528 8.062 3.226 0.6016 6.436-2.034 7.163-5.882s-1.302-7.46-4.529-8.062c-3.226-0.6015-6.435 2.034-7.162 5.882zm-0.811-22.68c-0.258 5.265 3.124 9.793 7.548 10.11s8.226-3.708 8.484-8.973c0.258-5.265-3.124-9.794-7.548-10.11s-8.226 3.708-8.484 8.973z" clip-rule="evenodd" fill="#000" fill-rule="evenodd"/>
  <path d="m219.3 71.21-0.458-0.2006 0.458 0.2006c1.164-2.656 0.328-5.653-2.15-6.529-2.434-0.8597-5.269 0.772-6.429 3.42-1.164 2.656-0.328 5.653 2.15 6.529 2.434 0.8597 5.269-0.7719 6.429-3.42zm3.077-27.48c-3.575-0.6664-6.984 2.246-7.746 6.281-0.762 4.034 1.352 7.979 4.928 8.646 3.575 0.6665 6.984-2.246 7.746-6.281 0.762-4.034-1.352-7.979-4.928-8.646zm-8.564-16.33c-0.268 5.455 3.242 10.29 8.012 10.63 4.784 0.3382 8.751-3.989 9.018-9.447 0.268-5.455-3.242-10.29-8.012-10.63-4.784-0.3382-8.751 3.989-9.018 9.447z" stroke="#fff" stroke-opacity=".8"/>
 </g>
</svg>

<svg width="238" height="118" viewBox="0 0 238 118" fill="none" xmlns="http://www.w3.org/2000/svg">
<g opacity="0.8">
<path fill-rule="evenodd" clip-rule="evenodd" d="M208.389 90.3291C202.78 92.3591 199.658 98.2964 201.421 103.579C203.184 108.862 209.17 111.503 214.779 109.473C220.389 107.443 223.511 101.506 221.747 96.223C219.984 90.9401 213.998 88.299 208.389 90.3291ZM25.3277 36.6473C26.7921 36.6474 27.5243 37.3795 27.5243 38.844V107.672C27.5243 109.136 26.7921 109.868 25.3277 109.868H10.8299C9.36549 109.868 8.63323 109.136 8.63323 107.672V38.844C8.63323 37.3795 9.36549 36.6474 10.8299 36.6473H25.3277ZM84.9296 36.0616C100.892 36.0616 106.457 46.8982 106.457 61.8354V107.672C106.457 109.136 105.724 109.868 104.26 109.868H89.7622C88.2977 109.868 87.5656 109.136 87.5656 107.672V59.6387C87.5656 54.6597 83.9046 52.9024 79.6576 52.9024H77.9004C71.6034 52.9024 67.0636 55.5383 65.4528 58.1743V107.672C65.4528 109.136 64.7206 109.868 63.2562 109.868H48.7584C47.294 109.868 46.5618 109.136 46.5618 107.672V38.844C46.5618 37.3795 47.294 36.6474 48.7584 36.6473H63.2562C64.7206 36.6474 65.4528 37.3795 65.4528 38.844V45.2874C67.6494 41.6264 73.2142 36.0616 84.0509 36.0616H84.9296ZM140.724 7.35889C142.189 7.35889 142.921 8.09115 142.921 9.55547V60.371L163.715 38.4046C164.594 37.3795 165.912 36.6474 167.084 36.6473H182.167C184.071 36.6474 185.828 38.844 183.192 41.6264L161.372 65.057L186.853 105.914C187.732 107.525 187.585 109.868 185.096 109.868H171.33C169.427 109.868 167.669 109.283 166.498 107.232L148.632 77.651L142.921 83.3623V107.672C142.921 109.136 142.189 109.868 140.724 109.868H126.226C124.762 109.868 124.03 109.136 124.03 107.672V9.55547C124.03 8.09115 124.762 7.35889 126.226 7.35889L140.724 7.35889ZM15.2374 10.8382C9.74022 12.5003 6.4321 18.047 7.85473 23.2169C9.27747 28.3867 14.8955 31.2346 20.3927 29.5724C25.89 27.9103 29.198 22.3636 27.7754 17.1938C26.3528 12.0239 20.7347 9.17609 15.2374 10.8382Z" fill="black"/>
<path d="M25.3277 36.1473H25.3277H10.8299H10.8299C10.0206 36.1473 9.32182 36.35 8.82887 36.8429C8.33591 37.3359 8.13323 38.0347 8.13323 38.844V107.672C8.13323 108.481 8.3359 109.18 8.82886 109.673C9.32182 110.166 10.0206 110.368 10.8299 110.368H25.3277C26.137 110.368 26.8358 110.166 27.3287 109.673C27.8216 109.18 28.0243 108.481 28.0243 107.672V38.844C28.0243 38.0347 27.8216 37.3359 27.3287 36.8429C26.8358 36.35 26.137 36.1473 25.3277 36.1473ZM187.292 105.675L187.285 105.662L187.278 105.65L161.999 65.1175L183.555 41.9702C183.556 41.9697 183.556 41.9692 183.557 41.9687C184.952 40.4947 185.29 39.0525 184.848 37.9127C184.417 36.7991 183.298 36.1473 182.167 36.1473H167.084C165.731 36.1474 164.289 36.9724 163.344 38.0698L143.421 59.1155V9.55547C143.421 8.74624 143.218 8.04745 142.725 7.55451C142.232 7.06156 141.533 6.85889 140.724 6.85889H126.226C125.417 6.85889 124.718 7.06156 124.225 7.55451C123.732 8.04745 123.53 8.74624 123.53 9.55547V107.672C123.53 108.481 123.732 109.18 124.225 109.673C124.718 110.166 125.417 110.368 126.226 110.368H140.724C141.533 110.368 142.232 110.166 142.725 109.673C143.218 109.18 143.421 108.481 143.421 107.672V83.5694L148.534 78.4561L166.064 107.48C166.065 107.482 166.066 107.484 166.067 107.486C166.698 108.589 167.502 109.319 168.42 109.768C169.333 110.215 170.33 110.368 171.33 110.368H185.096C185.797 110.368 186.379 110.203 186.831 109.887C187.285 109.569 187.569 109.126 187.716 108.64C188.004 107.689 187.775 106.561 187.292 105.675ZM15.0927 10.3596L15.2374 10.8382L15.0927 10.3596C9.36618 12.091 5.86993 17.8886 7.37265 23.3495L7.37265 23.3496C8.87871 28.8221 14.8038 31.7846 20.5375 30.051C26.2641 28.3195 29.7602 22.5219 28.2575 17.0611C26.7515 11.5884 20.8263 8.62603 15.0927 10.3596ZM208.219 89.8589C202.384 91.9705 199.088 98.1684 200.947 103.738C202.81 109.319 209.108 112.058 214.95 109.944C220.784 107.832 224.081 101.634 222.222 96.0647C220.359 90.4839 214.06 87.7448 208.219 89.8589ZM106.957 61.8354C106.957 54.3191 105.559 47.7499 102.081 43.0496C98.582 38.3214 93.0361 35.5616 84.9296 35.5616H84.0509C74.2886 35.5616 68.6892 40.0048 65.9528 43.6528V38.844C65.9528 38.0347 65.7501 37.3359 65.2572 36.8429C64.7643 36.35 64.0655 36.1473 63.2562 36.1473H48.7584C47.9491 36.1473 47.2503 36.35 46.7574 36.8429C46.2644 37.3359 46.0618 38.0347 46.0618 38.844V107.672C46.0618 108.481 46.2644 109.18 46.7574 109.673C47.2503 110.166 47.9491 110.368 48.7584 110.368H63.2562C64.0655 110.368 64.7643 110.166 65.2572 109.673C65.7501 109.18 65.9528 108.481 65.9528 107.672V58.3184C67.5101 55.9118 71.8144 53.4024 77.9004 53.4024H79.6576C81.7241 53.4024 83.5807 53.8318 84.9083 54.8065C86.2106 55.7626 87.0656 57.2881 87.0656 59.6387V107.672C87.0656 108.481 87.2682 109.18 87.7611 109.673C88.2541 110.166 88.9529 110.368 89.7622 110.368H104.26C105.069 110.368 105.768 110.166 106.261 109.673C106.754 109.18 106.957 108.481 106.957 107.672V61.8354Z" stroke="white" stroke-opacity="0.8"/>
</g>
<g opacity="0.8">
<path fill-rule="evenodd" clip-rule="evenodd" d="M206.599 73.2815L203.408 73.2579C201.944 73.2579 201.212 72.5256 201.212 71.0612V9.55547C201.212 8.09115 201.944 7.35889 203.408 7.35889H218.345C219.81 7.35889 220.542 8.09115 220.542 9.55547L220.533 11.631C214.852 13.0148 210.429 18.8034 210.075 26.0213C209.791 31.8185 212.204 37.07 216.018 40.0414C213.177 41.9747 211.088 45.2396 210.565 49.15C209.995 53.4076 211.412 57.4409 214.042 60.1077C211.388 61.2726 208.971 63.6535 207.595 66.793C206.623 69.0124 206.319 71.2728 206.599 73.2815Z" fill="black"/>
<path d="M206.596 73.7815L207.174 73.7858L207.095 73.2125C206.828 71.3023 207.115 69.1349 208.053 66.9936C209.381 63.9618 211.711 61.6769 214.243 60.5655L214.908 60.2737L214.398 59.7566C211.881 57.2036 210.51 53.3259 211.06 49.2164L210.565 49.15L211.06 49.2164C211.565 45.4426 213.579 42.3058 216.3 40.4548L216.867 40.0688L216.326 39.647C212.652 36.785 210.297 31.6964 210.575 26.0458C210.92 19.0018 215.229 13.4378 220.651 12.1168L221.031 12.0242L221.033 11.6331L221.042 9.55763V9.55547C221.042 8.74624 220.839 8.04746 220.346 7.55451C219.853 7.06157 219.155 6.85889 218.345 6.85889H203.408C202.599 6.85889 201.9 7.06157 201.407 7.55451C200.914 8.04746 200.712 8.74624 200.712 9.55547V71.0612C200.712 71.8705 200.914 72.5693 201.407 73.0622C201.9 73.5549 202.598 73.7576 203.407 73.7579C203.407 73.7579 203.408 73.7579 203.408 73.7579L206.596 73.7815Z" stroke="white" stroke-opacity="0.8"/>
</g>
<g opacity="0.8">
<path fill-rule="evenodd" clip-rule="evenodd" d="M211.209 68.3066C210.12 70.7918 210.953 73.4161 213.068 74.1633C215.182 74.9103 217.783 73.499 218.872 71.0136C219.961 68.5282 219.128 65.9039 217.013 65.1569C214.899 64.4097 212.298 65.8212 211.209 68.3066ZM215.153 50.1107C214.426 53.9585 216.455 57.5709 219.681 58.1724C222.907 58.774 226.117 56.1384 226.844 52.2906C227.571 48.4428 225.542 44.8304 222.315 44.2289C219.089 43.6274 215.88 46.2629 215.153 50.1107ZM214.342 27.4322C214.084 32.6972 217.466 37.2256 221.89 37.5384C226.314 37.8512 230.116 33.8308 230.374 28.5658C230.632 23.3007 227.25 18.7723 222.826 18.4595C218.402 18.1467 214.6 22.1673 214.342 27.4322Z" fill="black"/>
<path d="M219.33 71.2142L218.872 71.0136L219.33 71.2142C220.494 68.5582 219.658 65.5608 217.18 64.6854C214.746 63.8257 211.911 65.4574 210.751 68.1059H210.751C209.587 70.7619 210.423 73.7592 212.901 74.6347C215.335 75.4944 218.17 73.8628 219.33 71.2142ZM222.407 43.7373L222.407 43.7373C218.832 43.0709 215.423 45.9838 214.661 50.0179C213.899 54.0523 216.013 57.9972 219.589 58.664C223.164 59.3305 226.573 56.4175 227.335 52.3834C228.097 48.349 225.983 44.4041 222.407 43.7373ZM213.843 27.4077L213.843 27.4077C213.575 32.8627 217.085 37.6999 221.855 38.0372C226.639 38.3754 230.606 34.0482 230.873 28.5902C231.141 23.1352 227.631 18.298 222.861 17.9607L222.861 17.9607C218.077 17.6225 214.11 21.9498 213.843 27.4077Z" stroke="white" stroke-opacity="0.8"/>
</g>
</svg>
